X:5704
T:Gan Ainm
R:Reel
S:
H:
N:
D:
Z:Adrian Scahill
M:4/4
L:1/8
K:D
fe|dcBA BAFA|dcde fgfe|dcBA FDFA|1 BdcA B2fe:|2 BdcA B2de||\
fedc defg|afbf afeg|fedc defg|afdf e2de|\
fedc defg|afbf a3f|bfbf afaf|bfaf e2fe||
